projects/flag-game/flags/Slovakia.svg

<svg viewBox="0 0 1000 667" xmlns="http://www.w3.org/2000/svg" xmlns:xlink="http://www.w3.org/1999/xlink"><clipPath id="a"><path d="m0 0h1000v666.71875h-1000zm0 0"/></clipPath><g clip-path="url(#a)"><path d="m0 666.667969v-666.667969h1000v666.667969zm0 0" fill="#ee1c25" fill-rule="evenodd"/></g><g fill-rule="evenodd"><path d="m0 0h1000v444.445312h-1000zm0 0" fill="#0b4ea2"/><path d="m0 0h1000v222.222656h-1000zm0 0" fill="#fff"/><path d="m351.394531 500c-54.824219-26.40625-133.242187-78.820312-133.242187-182.503906 0-103.679688 4.960937-150.828125 4.960937-150.828125h256.570313s4.957031 47.148437 4.957031 150.828125c0 103.683594-78.417969 156.097656-133.246094 182.503906zm0 0" fill="#ee1c25"/><path d="m363.117188 290.316406c14.84375.238282 43.8125.816406 69.597656-7.808594 0 0-.683594 9.230469-.683594 19.976563 0 10.753906.683594 19.980469.683594 19.980469-23.65625-7.914063-52.863282-8.078125-69.597656-7.863282v57.261719h-23.449219v-57.261719c-16.722657-.214843-45.933594-.050781-69.589844 7.863282 0 0 .679687-9.226563.679687-19.980469 0-10.746094-.679687-19.976563-.679687-19.976563 25.789063 8.625 54.75 8.046876 69.589844 7.808594v-35.964844c-13.527344-.121093-33.023438.527344-55.066407 7.902344 0 0 .679688-9.226562.679688-19.980468 0-10.753907-.679688-19.980469-.679688-19.980469 22.011719 7.367187 41.484376 8.023437 55.007813 7.902343-.691406-22.765624-7.328125-51.472656-7.328125-51.472656s13.65625 1.0625 19.113281 1.0625c5.464844 0 19.113281-1.0625 19.113281-1.0625s-6.628906 28.707032-7.328124 51.472656c13.527343.121094 33-.535156 55.011718-7.902343 0 0-.683594 9.226562-.683594 19.980469 0 10.753906.683594 19.980468.683594 19.980468-22.042968-7.375-41.542968-8.023437-55.074218-7.902344zm0 0" fill="#fff"/><path d="m349.894531 504.761719-114.511719-72.003907s14.527344-46.964843 42.867188-46.964843c22.527344 0 30.75 18.164062 30.75 18.164062s14.785156-38.289062 42.394531-38.289062 42.398438 38.289062 42.398438 38.289062 8.21875-18.164062 30.746093-18.164062c28.347657 0 42.863282 46.964843 42.863282 46.964843zm0 0" fill="#0b4ea2"/><path d="m351.394531 515c-59.753906-28.785156-145.230469-85.914062-145.230469-198.925781 0-113.015625 5.398438-164.410157 5.398438-164.410157h279.664062s5.402344 51.394532 5.402344 164.410157c0 113.011719-85.476562 170.140625-145.234375 198.925781zm0-15c-54.824219-26.40625-133.242187-78.820312-133.242187-182.503906 0-103.679688 4.960937-150.828125 4.960937-150.828125h256.570313s4.957031 47.148437 4.957031 150.828125c0 103.683594-78.417969 156.097656-133.246094 182.503906zm0 0" fill="#fff"/></g></svg>

<?xml version="1.0" encoding="UTF-8"?>
<svg xmlns="http://www.w3.org/2000/svg" xmlns:xlink="http://www.w3.org/1999/xlink" viewBox="0 0 1000 667" version="1.1">
<defs>
<clipPath id="clip1">
  <path d="M 0 0 L 1000 0 L 1000 666.71875 L 0 666.71875 Z M 0 0 "/>
</clipPath>
</defs>
<g id="surface1075">
<g clip-path="url(#clip1)" clip-rule="nonzero">
<path style=" stroke:none;fill-rule:evenodd;fill:rgb(93.331909%,10.980225%,14.509583%);fill-opacity:1;" d="M 0 666.667969 L 0 0 L 1000 0 L 1000 666.667969 Z M 0 666.667969 "/>
</g>
<path style=" stroke:none;fill-rule:evenodd;fill:rgb(4.31366%,30.587769%,63.528442%);fill-opacity:1;" d="M 0 0 L 1000 0 L 1000 444.445312 L 0 444.445312 Z M 0 0 "/>
<path style=" stroke:none;fill-rule:evenodd;fill:rgb(99.998474%,99.998474%,99.998474%);fill-opacity:1;" d="M 0 0 L 1000 0 L 1000 222.222656 L 0 222.222656 Z M 0 0 "/>
<path style=" stroke:none;fill-rule:evenodd;fill:rgb(93.331909%,10.980225%,14.509583%);fill-opacity:1;" d="M 351.394531 500 C 296.570312 473.59375 218.152344 421.179688 218.152344 317.496094 C 218.152344 213.816406 223.113281 166.667969 223.113281 166.667969 L 479.683594 166.667969 C 479.683594 166.667969 484.640625 213.816406 484.640625 317.496094 C 484.640625 421.179688 406.222656 473.59375 351.394531 500 Z M 351.394531 500 "/>
<path style=" stroke:none;fill-rule:evenodd;fill:rgb(99.998474%,99.998474%,99.998474%);fill-opacity:1;" d="M 363.117188 290.316406 C 377.960938 290.554688 406.929688 291.132812 432.714844 282.507812 C 432.714844 282.507812 432.03125 291.738281 432.03125 302.484375 C 432.03125 313.238281 432.714844 322.464844 432.714844 322.464844 C 409.058594 314.550781 379.851562 314.386719 363.117188 314.601562 L 363.117188 371.863281 L 339.667969 371.863281 L 339.667969 314.601562 C 322.945312 314.386719 293.734375 314.550781 270.078125 322.464844 C 270.078125 322.464844 270.757812 313.238281 270.757812 302.484375 C 270.757812 291.738281 270.078125 282.507812 270.078125 282.507812 C 295.867188 291.132812 324.828125 290.554688 339.667969 290.316406 L 339.667969 254.351562 C 326.140625 254.230469 306.644531 254.878906 284.601562 262.253906 C 284.601562 262.253906 285.28125 253.027344 285.28125 242.273438 C 285.28125 231.519531 284.601562 222.292969 284.601562 222.292969 C 306.613281 229.660156 326.085938 230.316406 339.609375 230.195312 C 338.917969 207.429688 332.28125 178.722656 332.28125 178.722656 C 332.28125 178.722656 345.9375 179.785156 351.394531 179.785156 C 356.859375 179.785156 370.507812 178.722656 370.507812 178.722656 C 370.507812 178.722656 363.878906 207.429688 363.179688 230.195312 C 376.707031 230.316406 396.179688 229.660156 418.191406 222.292969 C 418.191406 222.292969 417.507812 231.519531 417.507812 242.273438 C 417.507812 253.027344 418.191406 262.253906 418.191406 262.253906 C 396.148438 254.878906 376.648438 254.230469 363.117188 254.351562 Z M 363.117188 290.316406 "/>
<path style=" stroke:none;fill-rule:evenodd;fill:rgb(4.31366%,30.587769%,63.528442%);fill-opacity:1;" d="M 349.894531 504.761719 L 235.382812 432.757812 C 235.382812 432.757812 249.910156 385.792969 278.25 385.792969 C 300.777344 385.792969 309 403.957031 309 403.957031 C 309 403.957031 323.785156 365.667969 351.394531 365.667969 C 379.003906 365.667969 393.792969 403.957031 393.792969 403.957031 C 393.792969 403.957031 402.011719 385.792969 424.539062 385.792969 C 452.886719 385.792969 467.402344 432.757812 467.402344 432.757812 Z M 349.894531 504.761719 "/>
<path style=" stroke:none;fill-rule:evenodd;fill:rgb(99.998474%,99.998474%,99.998474%);fill-opacity:1;" d="M 351.394531 515 C 291.640625 486.214844 206.164062 429.085938 206.164062 316.074219 C 206.164062 203.058594 211.5625 151.664062 211.5625 151.664062 L 491.226562 151.664062 C 491.226562 151.664062 496.628906 203.058594 496.628906 316.074219 C 496.628906 429.085938 411.152344 486.214844 351.394531 515 Z M 351.394531 500 C 296.570312 473.59375 218.152344 421.179688 218.152344 317.496094 C 218.152344 213.816406 223.113281 166.667969 223.113281 166.667969 L 479.683594 166.667969 C 479.683594 166.667969 484.640625 213.816406 484.640625 317.496094 C 484.640625 421.179688 406.222656 473.59375 351.394531 500 Z M 351.394531 500 "/>
</g>
</svg>
